packages/calcite-ui-icons/icons/layer-multipoint-16.svg

<?xml version="1.0" encoding="UTF-8"?><svg id="icons" xmlns="http://www.w3.org/2000/svg" viewBox="0 0 16 16"><defs><style>.cls-1{fill:none;}</style></defs><rect class="cls-1" width="16" height="16"/><path d="M8.4996,8c.27682,0,.5004.22416.5004.5,0,.27592-.22358.5-.5004.5-.27602,0-.4996-.22408-.4996-.5,0-.27584.22358-.5.4996-.5ZM10,10.5004c0,.27602.22352.4996.49964.4996.27604,0,.50036-.22358.50036-.4996,0-.2761-.22432-.5004-.50036-.5004-.27612,0-.49964.2243-.49964.5004ZM7,5.50004c0,.27582.22352.49996.49956.49996.27612,0,.50044-.22414.50044-.49996,0-.2759-.22432-.50004-.50044-.50004-.27604,0-.49956.22414-.49956.50004ZM5,6.49964c0,.27604.22432.50036.50036.50036.27612,0,.49964-.22432.49964-.50036,0-.27612-.22352-.49964-.49964-.49964-.27604,0-.50036.22352-.50036.49964ZM4,9.49996c0,.27634.2237.50004.49996.50004.27634,0,.50004-.2237.50004-.50004,0-.27626-.2237-.50004-.50004-.50004-.27626,0-.49996.22378-.49996.50004ZM11,7.49964c0,.27612.22352.49964.49956.49964.27612,0,.50044-.22352.50044-.49964,0-.27604-.22432-.49964-.50044-.49964-.27604,0-.49956.2236-.49956.49964ZM6,10.50036c0,.27612.2243.49964.5004.49964.27602,0,.4996-.22352.4996-.49964,0-.27604-.22358-.50036-.4996-.50036-.2761,0-.5004.22432-.5004.50036ZM10.70601,2.01431c-1.17036,0-1.72511.20082-2.36746.43335-.71518.2589-1.52577.55234-3.04456.55234-.90814,0-1.73619-.12625-2.35881-.26007l-1.81064,10.69737c.57388.16844,1.49092.3627,2.66814.3627,1.66881,0,2.74678-.36317,3.88805-.74766,1.24379-.41904,2.52994-.85234,4.5266-.85234.97401,0,1.81252.1643,2.48848.3759l-1.72021-10.16314c-.49541-.16963-1.33664-.39846-2.26958-.39846M10.70601,1.01431c1.73843,0,3.16118.67396,3.16118.67396l2.13281,12.6008s-1.42232-1.08907-3.79268-1.08907c-3.66547,0-4.74918,1.6-8.41464,1.6-2.37038,0-3.79268-.71093-3.79268-.71093L2.1328,1.48827s1.42276.51173,3.16119.51173c2.68752,0,2.72124-.98569,5.41202-.98569h0Z"/></svg>

<svg xmlns="http://www.w3.org/2000/svg" viewBox="0 0 16 16"><path d="M0 0h16v16H0z" style="fill:none"/><path d="M8.5 8a.5.5 0 1 1 0 1 .5.5 0 0 1 0-1m1.5 2.5a.5.5 0 1 0 .999 0 .5.5 0 0 0-.999 0m-3-5a.5.5 0 1 0 1 0 .5.5 0 0 0-1 0m-2 1a.5.5 0 1 0 1.001-.001.5.5 0 0 0-1.001 0m-1 3a.5.5 0 1 0 1 0 .5.5 0 0 0-1 0m7-2a.5.5 0 1 0 .999 0 .5.5 0 0 0-.999 0m-5 3a.5.5 0 1 0 1 0 .5.5 0 0 0-1 0m4.706-8.486c-1.17 0-1.725.201-2.367.434-.716.26-1.526.553-3.045.553-.908 0-1.736-.126-2.359-.26l-1.81 10.697c.573.169 1.49.363 2.668.363 1.668 0 2.746-.363 3.888-.748 1.244-.419 2.53-.852 4.526-.852.974 0 1.813.164 2.489.376l-1.72-10.163c-.496-.17-1.337-.399-2.27-.399m0-1c1.738 0 3.161.674 3.161.674L16 14.29s-1.422-1.09-3.793-1.09c-3.665 0-4.749 1.6-8.414 1.6-2.37 0-3.793-.71-3.793-.71L2.133 1.487S3.556 2 5.294 2c2.688 0 2.721-.986 5.412-.986"/></svg>
